images/icon/icon_grid.svg

<?xml version="1.0" encoding="utf-8"?>
<!-- Generator: Adobe Illustrator 16.0.0, SVG Export Plug-In . SVG Version: 6.00 Build 0)  -->
<!DOCTYPE svg PUBLIC "-//W3C//DTD SVG 1.1//EN" "http://www.w3.org/Graphics/SVG/1.1/DTD/svg11.dtd">
<svg version="1.1" id="grid" xmlns="http://www.w3.org/2000/svg" xmlns:xlink="http://www.w3.org/1999/xlink" x="0px" y="0px"
	 width="32px" height="32px" viewBox="0 0 32 32" enable-background="new 0 0 32 32" xml:space="preserve">
<path d="M0,0h8v8H0V0z M12,0h8v8h-8V0z M24,0h8v8h-8V0z M0,12h8v8H0V12z M12,12h8v8h-8V12z M24,12h8v8h-8V12z M0,24h8v8H0V24z
	 M12,24h8v8h-8V24z M24,24h8v8h-8V24z"/>
</svg>

<svg id="grid" xmlns="http://www.w3.org/2000/svg" viewBox="0 0 32 32"><defs><style>.cls-1{fill:#fff;}</style></defs><path class="cls-1" d="M0,0H8V8H0ZM12,0h8V8H12ZM24,0h8V8H24ZM0,12H8v8H0Zm12,0h8v8H12Zm12,0h8v8H24ZM0,24H8v8H0Zm12,0h8v8H12Zm12,0h8v8H24Z"/></svg>
